packages/foundations/assets/icons/functional/images/maps/map_pin_32_filled.svg

<svg xmlns="http://www.w3.org/2000/svg" width="20" height="20" fill="none"><path fill="#1A1C1F" fill-rule="evenodd" d="M9.383 2.037C6.978 2.265 5.069 3.76 4.323 6c-.49 1.473-.417 2.881.231 4.427.321.767.667 1.352 1.678 2.84 1.802 2.649 3.035 4.401 3.188 4.527.137.113.399.206.58.206s.443-.093.579-.205c.143-.118 1.171-1.575 3.111-4.412 1.349-1.972 1.698-2.611 2.047-3.75.515-1.676.231-3.567-.76-5.065-.344-.52-1.007-1.186-1.524-1.531-1.19-.792-2.599-1.139-4.07-1m1.161 4.053c.548.162 1.01.564 1.262 1.096.524 1.112-.129 2.434-1.36 2.748a1.63 1.63 0 0 1-.889.001 1.94 1.94 0 0 1-1.113-.719 2 2 0 0 1-.399-.857c-.219-1.031.556-2.133 1.633-2.324a2.4 2.4 0 0 1 .866.055"/></svg>

<svg width="20" height="20" viewBox="0 0 20 20" fill="none" xmlns="http://www.w3.org/2000/svg"><path d="M9.383 2.037 C 6.978 2.265,5.069 3.760,4.323 6.000 C 3.833 7.473,3.906 8.881,4.554 10.427 C 4.875 11.194,5.221 11.779,6.232 13.267 C 8.034 15.916,9.267 17.668,9.420 17.794 C 9.557 17.907,9.819 18.000,10.000 18.000 C 10.180 18.000,10.443 17.907,10.579 17.795 C 10.722 17.677,11.750 16.220,13.690 13.383 C 15.039 11.411,15.388 10.772,15.737 9.633 C 16.252 7.957,15.968 6.066,14.977 4.568 C 14.633 4.048,13.970 3.382,13.453 3.037 C 12.263 2.245,10.854 1.898,9.383 2.037 M10.544 6.090 C 11.092 6.252,11.554 6.654,11.806 7.186 C 12.330 8.298,11.677 9.620,10.446 9.934 C 10.122 10.017,9.879 10.017,9.557 9.935 C 9.082 9.814,8.752 9.600,8.444 9.216 C 8.249 8.974,8.114 8.683,8.045 8.359 C 7.826 7.328,8.601 6.226,9.678 6.035 C 9.896 5.996,10.320 6.023,10.544 6.090 " fill="#1A1C1F" stroke="none" fill-rule="evenodd"></path></svg>
